!!!OTL: 352. Das verdorbene Kaepplein.
!!!ARE: Europa, Mitteleuropa, Deutschland, Kassel
!!!SCT: K2352
!!!TXL: @@DE
!!!YEM: Copyright 1995, estate of Helmut Schaffrath.
**kern	**text
*clefG2	*
*M2/4	*
*k[f#]	*
*G:	*
{8d	1._Es
=1	=1
8g	ʒog
8g	ein
8g	Mann
8b	durch
=2	=2
8.g	A-
16d	-ſien-
8d	-land,
8b	ho-
=3	=3
4g	-hopp!
8r}	.
{8b	Es
=4	=4
8b	ʒog
8b	ein
8b	Mann
8b	durch
=5	=5
8.b	A-
16a	-ſten-
8g	-land,
8r}	.
=6	=6
{8a	ki-
8a	-lo,
8a	ki-
8a	-lo,
=7	=7
8g	hopp,
8b	hopp,
8dd}	hopp,
{8b	es
=8	=8
8cc	ʒog
8cc	ein
8cc	Mann
8cc	durch
=9	=9
8.b	A-
16b	-ſien-
4b}	-land,
=10	=10
{8a	ki-
8a	-lo,
8a	ki-
8a	-lo,
=11	=11
4g	hopp!
8r}	.
==	==
!!!AGN: Kinder - Lied, Reigen, Tanz - Spiel, Ballade
!!!ONB: ESAC (Essen Associative Code) Database: KINDER
!!!AMT: simple duple
!!!AIN: vox
!!!EED: Helmut Schaffrath
!!!EEV: 1.0
!!!GTL: Zweites Buch. Kinderspiel: 2. Reigen und Tanzspiele. / F. Ringeltaenze ueber alte Balladen- und Maerchenstoffe.
!!Aus Kassel: Lewalter 3, Nr. 25.
!!@@COMMENT:"Jn die Mitte eines ſingenden Kreiſes ſtellen ſich ʒwei Kinder, welche den Mann mit dem Eſel darſtellen; noch kommen ʒwei hinʒu: die Schneiderin und Frau Hahnebeck. Sie agiren, was der Text 
!!erfordert; die Leinwand iſt durch ein Stück Papier dargeſtellt. Am Schluß wird die Schneiderin wegen des verpfuſchten Käppchens von allen dreien durchgeprügelt. - Der Jnhalt des Spiels 
!!iſt Umbildung eines alten Volksliedes vom "Faltenrock": Es ließ ſich ein Bau'r ein Paltrock ſchneiden von 17 Ellen rc. (Altd. Liederbuch Nr. 461. Firmenich J. 426. Liederhort III, 513). 
!!Dort wird der Schneider ausgeſcholten wegen des verdorbenen Rockes und ſoll ihn beʒahlen; ein Grasmädchen Lischen giebt das Urtheil, wie ſchlecht der Paltrock ſteht."
!!@@END:
!!!URL-scan: https://archive.org/details/DeutschesKinderliedUndKinderspiel/page/547/mode/1up
!!!ENC: Anna Maria Matuszewska
!!!EEV: 2024/05/09
*-	*-
